img/svg_icons/people.svg

<svg width="23" height="31" viewBox="0 0 23 31" fill="none" xmlns="http://www.w3.org/2000/svg">
<path d="M5.79149 30.9549C4.67312 30.7951 2.13017 28.7581 0.998489 27.7596L2.59616 25.9622C3.5947 24.9636 5.19236 22.9666 6.79003 22.5671H13.9795C15.3775 22.7668 15.7769 24.3645 14.3789 25.1633L10.5845 25.9622L11.3833 26.761L15.7769 26.761C16.5757 26.1619 20.4175 22.4192 20.7696 22.1677C22.1676 21.1692 23.5655 22.5671 22.7667 23.7654C21.169 25.3631 17.8539 28.7182 17.3746 29.3572C16.8953 29.9963 16.376 30.1561 16.1763 30.1561H7.18945C6.19091 30.1561 5.88024 30.9676 5.79149 30.9549Z" fill="white"/>
<path d="M13.5802 2.59621C13.5802 4.03005 12.4178 5.19242 10.984 5.19242C9.55012 5.19242 8.38776 4.03005 8.38776 2.59621C8.38776 1.16236 9.55012 0 10.984 0C12.4178 0 13.5802 1.16236 13.5802 2.59621Z" fill="white"/>
<path d="M20.3703 3.59475C20.3703 4.9183 19.2973 5.99125 17.9738 5.99125C16.6502 5.99125 15.5773 4.9183 15.5773 3.59475C15.5773 2.2712 16.6502 1.19825 17.9738 1.19825C19.2973 1.19825 20.3703 2.2712 20.3703 3.59475Z" fill="white"/>
<path d="M5.99126 3.59475C5.99126 4.9183 4.91831 5.99125 3.59476 5.99125C2.27121 5.99125 1.19826 4.9183 1.19826 3.59475C1.19826 2.2712 2.27121 1.19825 3.59476 1.19825C4.91831 1.19825 5.99126 2.2712 5.99126 3.59475Z" fill="white"/>
<path d="M6.79008 8.78717C6.79008 7.24303 8.04186 5.99126 9.586 5.99126H11.9825C13.5266 5.99126 14.7784 7.24303 14.7784 8.78717V11.5831C14.7784 13.1272 13.5266 14.379 11.9825 14.379H9.586C8.04186 14.379 6.79008 13.1272 6.79008 11.5831V8.78717Z" fill="white"/>
<path d="M8.38775 13.5802H13.5802V20.7697H11.5831L10.984 16.5758L10.3848 20.7697H8.38775V13.5802Z" fill="white"/>
<path d="M16.7754 9.18659C16.7754 7.64245 16.376 6.39067 16.376 6.39067H19.1719C20.7161 6.39067 21.9678 7.64245 21.9678 9.18659V11.9825C21.9678 13.5266 20.7161 14.7784 19.1719 14.7784L15.5771 14.5787C15.5771 14.5787 16.7754 13.5266 16.7754 11.9825V9.18659Z" fill="white"/>
<path d="M15.5771 14.5787L20.7696 13.9796V21.1691H18.7725L18.1734 16.9752L17.5742 21.1691H15.5772L15.5771 14.5787Z" fill="white"/>
<path d="M5.19241 9.18659C5.19241 7.64245 5.59179 6.39067 5.59179 6.39067H2.79591C1.25176 6.39067 -1.23978e-05 7.64245 -1.23978e-05 9.18659V11.9825C-1.23978e-05 13.5266 1.25176 14.7784 2.79591 14.7784L6.39067 14.5787C6.39067 14.5787 5.19241 13.5266 5.19241 11.9825V9.18659Z" fill="white"/>
<path d="M6.39067 14.5787L1.19824 13.9796V21.1691H3.19532L3.79445 16.9752L4.39357 21.1691H6.39066L6.39067 14.5787Z" fill="white"/>
</svg>

<svg width="23" height="31" fill="none" xmlns="http://www.w3.org/2000/svg"><path d="M5.791 30.955c-1.118-.16-3.66-2.197-4.793-3.195l1.598-1.798c.999-.998 2.596-2.995 4.194-3.395h7.19c1.397.2 1.797 1.797.399 2.596l-3.794.8.798.798h4.394c.799-.6 4.64-4.342 4.993-4.593 1.398-.999 2.796.4 1.997 1.597-1.598 1.598-4.913 4.953-5.392 5.592-.48.64-.999.8-1.199.8H7.19c-.998 0-1.309.81-1.398.798zM13.58 2.596a2.596 2.596 0 11-5.192 0 2.596 2.596 0 015.192 0zm6.79.999a2.397 2.397 0 11-4.793 0 2.397 2.397 0 014.793 0zm-14.379 0a2.397 2.397 0 11-4.793 0 2.397 2.397 0 014.793 0zm.799 5.192a2.796 2.796 0 012.796-2.796h2.396a2.796 2.796 0 012.796 2.796v2.796a2.796 2.796 0 01-2.796 2.796H9.587a2.796 2.796 0 01-2.796-2.796V8.787z" fill="#fff"/><path d="M8.388 13.58h5.192v7.19h-1.997l-.599-4.194-.6 4.194H8.389v-7.19zm8.387-4.393c0-1.545-.399-2.796-.399-2.796h2.796a2.796 2.796 0 012.796 2.796v2.796a2.796 2.796 0 01-2.796 2.795l-3.595-.2s1.198-1.051 1.198-2.595V9.187z" fill="#fff"/><path d="M15.577 14.579l5.193-.6v7.19h-1.997l-.6-4.194-.599 4.194h-1.997v-6.59zM5.192 9.187c0-1.545.4-2.796.4-2.796H2.796A2.796 2.796 0 000 9.187v2.796a2.796 2.796 0 002.796 2.795l3.595-.2s-1.199-1.051-1.199-2.595V9.187z" fill="#fff"/><path d="M6.39 14.579l-5.192-.6v7.19h1.997l.6-4.194.599 4.194H6.39v-6.59z" fill="#fff"/></svg>
